X:325
T: Siobhan O'Donnell's #3
S: "Traditional Irish Music" (K.Tweed)
Z: B.Black
L: 1/8
M: 4/4
R: reel
K: G
G2 dG BdGB|dGBd ecAB|G2 dG Bcde|1 dBAc BGGF :|2\
dBAc BG (3Bcd||
egfg egfe|d2 d2 adfd|egfg efga|bgaf geed|
ebge Bege|dafd Adfd|G2 dG Bcde|dBAc BGGF ||
